icons/lines/note.svg

<svg xmlns="http://www.w3.org/2000/svg" width="24" height="24" viewBox="0 0 24 24" fill="none" stroke="currentColor" stroke-width="2" stroke-linecap="round" stroke-linejoin="round" >
  <path d="M21.6602 10.44L20.6802 14.62C19.8402 18.23 18.1802 19.69 15.0602 19.39C14.5602 19.35 14.0202 19.26 13.4402 19.12L11.7602 18.72C7.59018 17.73 6.30018 15.67 7.28018 11.49L8.26018 7.30001C8.46018 6.45001 8.70018 5.71001 9.00018 5.10001C10.1702 2.68001 12.1602 2.03001 15.5002 2.82001L17.1702 3.21001C21.3602 4.19001 22.6402 6.26001 21.6602 10.44Z"/>
  <path d="M15.0599 19.39C14.4399 19.81 13.6599 20.16 12.7099 20.47L11.1299 20.99C7.15985 22.27 5.06985 21.2 3.77985 17.23L2.49985 13.28C1.21985 9.30998 2.27985 7.20998 6.24985 5.92998L7.82985 5.40998C8.23985 5.27998 8.62985 5.16998 8.99985 5.09998C8.69985 5.70998 8.45985 6.44998 8.25985 7.29998L7.27985 11.49C6.29985 15.67 7.58985 17.73 11.7599 18.72L13.4399 19.12C14.0199 19.26 14.5599 19.35 15.0599 19.39Z"/>
  </svg>

<svg xmlns="http://www.w3.org/2000/svg" width="24" height="24" viewBox="0 0 24 24" fill="none" stroke="currentColor" stroke-width="2" stroke-linecap="round" stroke-linejoin="round">
  <path d="M15.06 19.39a10.5 10.5 0 0 1-1.62-.27l-1.68-.4c-4.17-.99-5.46-3.05-4.48-7.23l.98-4.19c.2-.85.44-1.59.74-2.2a10 10 0 0 0-1.17.31l-1.58.52C2.28 7.21 1.22 9.31 2.5 13.28l1.28 3.95c1.29 3.97 3.38 5.04 7.35 3.76l1.58-.52c.95-.31 1.73-.66 2.35-1.08" />
  <path d="M7.28 11.49c-.98 4.18.31 6.24 4.48 7.23" />
  <path d="M8.26 7.3c.2-.85.44-1.59.74-2.2 1.17-2.42 3.16-3.07 6.5-2.28l1.67.39c4.19.98 5.47 3.05 4.49 7.23l-.98 4.18c-.84 3.61-2.5 5.07-5.62 4.77a10.5 10.5 0 0 1-1.62-.27" />
</svg>
